SVG_Azure_All/Event Hub Networking.svg

<?xml version="1.0" encoding="UTF-8" standalone="no"?>
<!-- Generated by Microsoft Visio, SVG Export Event Hub Networking.svg Page-1 -->

<svg
   xmlns:dc="http://purl.org/dc/elements/1.1/"
   xmlns:cc="http://creativecommons.org/ns#"
   xmlns:rdf="http://www.w3.org/1999/02/22-rdf-syntax-ns#"
   xmlns:svg="http://www.w3.org/2000/svg"
   xmlns="http://www.w3.org/2000/svg"
   xmlns:xlink="http://www.w3.org/1999/xlink"
   xmlns:sodipodi="http://sodipodi.sourceforge.net/DTD/sodipodi-0.dtd"
   xmlns:inkscape="http://www.inkscape.org/namespaces/inkscape"
   width="0.78740525in"
   height="0.63243592in"
   viewBox="0 0 56.693086 45.535337"
   xml:space="preserve"
   class="st11"
   version="1.1"
   id="svg105"
   sodipodi:docname="Event Hub Networking.svg"
   style="font-size:12px;overflow:visible;color-interpolation-filters:sRGB;fill:none;fill-rule:evenodd;stroke-linecap:square;stroke-miterlimit:3"
   inkscape:version="0.92.5 (2060ec1f9f, 2020-04-08)"><metadata
   id="metadata109"><rdf:RDF><cc:Work
       rdf:about=""><dc:format>image/svg+xml</dc:format><dc:type
         rdf:resource="http://purl.org/dc/dcmitype/StillImage" /></cc:Work></rdf:RDF></metadata><sodipodi:namedview
   pagecolor="#ffffff"
   bordercolor="#666666"
   borderopacity="1"
   objecttolerance="10"
   gridtolerance="10"
   guidetolerance="10"
   inkscape:pageopacity="0"
   inkscape:pageshadow="2"
   inkscape:window-width="640"
   inkscape:window-height="480"
   id="namedview107"
   showgrid="false"
   inkscape:zoom="1.5596483"
   inkscape:cx="37.797476"
   inkscape:cy="30.382697"
   inkscape:window-x="0"
   inkscape:window-y="0"
   inkscape:window-maximized="0"
   inkscape:current-layer="svg105" />
	<style
   type="text/css"
   id="style2">
	<![CDATA[
		.st1 {fill:url(#grad0-6);stroke:none;stroke-linecap:butt;stroke-width:34}
		.st2 {fill:url(#grad0-10);stroke:none;stroke-linecap:butt;stroke-width:34}
		.st3 {fill:#50e6ff;stroke:none;stroke-linecap:butt;stroke-width:34}
		.st4 {fill:#1490df;stroke:none;stroke-linecap:butt;stroke-width:34}
		.st5 {fill:url(#grad7-18);stroke:none;stroke-linecap:butt;stroke-width:34}
		.st6 {fill:#ffffff;fill-opacity:0.6;stroke:none;stroke-linecap:butt;stroke-width:34}
		.st7 {fill:url(#grad0-24);stroke:none;stroke-linecap:butt;stroke-width:34}
		.st8 {fill:#f2f2f2;fill-opacity:0.55;stroke:none;stroke-linecap:butt;stroke-width:34}
		.st9 {fill:url(#grad0-30);stroke:none;stroke-linecap:butt;stroke-width:34}
		.st10 {fill:#f2f2f2;fill-opacity:0.7;stroke:none;stroke-linecap:butt;stroke-width:34}
		.st11 {fill:none;fill-rule:evenodd;font-size:12px;overflow:visible;stroke-linecap:square;stroke-miterlimit:3}
	]]>
	</style>

	<defs
   id="Patterns_And_Gradients">
		<linearGradient
   id="grad0-6"
   x1="-4.4586334e-16"
   y1="105.69893"
   x2="7.3362917"
   y2="105.69893"
   gradientTransform="scale(0.9960209,1.003995)"
   gradientUnits="userSpaceOnUse">
			<stop
   offset="0"
   stop-color="#86d633"
   stop-opacity="1"
   id="stop4" />
			<stop
   offset="1"
   stop-color="#5e9624"
   stop-opacity="1"
   id="stop6" />
		</linearGradient>
		<linearGradient
   id="grad0-10"
   x1="-4.4586334e-16"
   y1="105.69893"
   x2="7.3362917"
   y2="105.69893"
   gradientTransform="scale(0.9960209,1.003995)"
   gradientUnits="userSpaceOnUse">
			<stop
   offset="0"
   stop-color="#86d633"
   stop-opacity="1"
   id="stop9" />
			<stop
   offset="1"
   stop-color="#5e9624"
   stop-opacity="1"
   id="stop11" />
		</linearGradient>
		<radialGradient
   id="grad7-18"
   cx="-3.0067051"
   cy="87.809681"
   r="39.60579"
   gradientTransform="scale(0.99658322,1.0034285)"
   fx="-3.0067051"
   fy="87.809681"
   gradientUnits="userSpaceOnUse">
			<stop
   offset="0.18"
   stop-color="#5ea0ef"
   stop-opacity="1"
   id="stop14" />
			<stop
   offset="1"
   stop-color="#0078d4"
   stop-opacity="1"
   id="stop16" />
		</radialGradient>
		<linearGradient
   id="grad0-24"
   x1="0"
   y1="0"
   x2="1"
   y2="0"
   gradientTransform="rotate(-90.442857,0.5,0.5)">
			<stop
   offset="0"
   stop-color="#cccccc"
   stop-opacity="1"
   id="stop19" />
			<stop
   offset="1"
   stop-color="#fcfcfc"
   stop-opacity="1"
   id="stop21" />
		</linearGradient>
		<linearGradient
   id="grad0-30"
   x1="0"
   y1="0"
   x2="1"
   y2="0"
   gradientTransform="rotate(90,0.5,0.5)">
			<stop
   offset="0"
   stop-color="#cccccc"
   stop-opacity="1"
   id="stop24" />
			<stop
   offset="1"
   stop-color="#fcfcfc"
   stop-opacity="1"
   id="stop26" />
		</linearGradient>
	<linearGradient
   inkscape:collect="always"
   xlink:href="#grad0-24"
   id="linearGradient4620"
   gradientTransform="scale(0.99602131,1.0039946)"
   x1="0"
   y1="103.98544"
   x2="9.0502082"
   y2="103.98544"
   gradientUnits="userSpaceOnUse" /><linearGradient
   inkscape:collect="always"
   xlink:href="#grad0-30"
   id="linearGradient4622"
   gradientTransform="scale(0.99602026,1.0039956)"
   x1="0"
   y1="107.13481"
   x2="5.9006632"
   y2="107.13481"
   gradientUnits="userSpaceOnUse" /><linearGradient
   inkscape:collect="always"
   xlink:href="#grad0-30"
   id="linearGradient4624"
   gradientTransform="scale(0.99602069,1.0039952)"
   x1="0"
   y1="106.76818"
   x2="6.2674801"
   y2="106.76818"
   gradientUnits="userSpaceOnUse" /><linearGradient
   inkscape:collect="always"
   xlink:href="#grad0-24"
   id="linearGradient4626"
   gradientTransform="scale(0.99602131,1.0039946)"
   x1="0"
   y1="103.98544"
   x2="9.0502082"
   y2="103.98544"
   gradientUnits="userSpaceOnUse" /><linearGradient
   inkscape:collect="always"
   xlink:href="#grad0-30"
   id="linearGradient4628"
   gradientTransform="scale(0.99602026,1.0039956)"
   x1="0"
   y1="107.13481"
   x2="5.9006632"
   y2="107.13481"
   gradientUnits="userSpaceOnUse" /></defs>
	<g
   id="g103"
   transform="translate(-33.998448,-33.995152)">
		<title
   id="title30">Page-1</title>
		<g
   id="group5124-1"
   transform="translate(34,-36.9671)">
			<title
   id="title32">Event Hub Networking</title>
			<g
   id="group5125-2">
				<title
   id="title34">Sheet.5125</title>
				<g
   id="shape5126-3"
   transform="translate(24.8205,-21.7222)">
					<title
   id="title36">Sheet.5126</title>
					<ellipse
   cx="3.6535499"
   cy="109.804"
   rx="3.6535499"
   ry="3.6828001"
   class="st1"
   id="ellipse38"
   style="fill:url(#grad0-6);stroke:none;stroke-width:34;stroke-linecap:butt" />
				</g>
				<g
   id="shape5127-7"
   transform="translate(13.17,-21.7222)">
					<title
   id="title41">Sheet.5127</title>
					<ellipse
   cx="3.6535499"
   cy="109.804"
   rx="3.6535499"
   ry="3.6828001"
   class="st2"
   id="ellipse43"
   style="fill:url(#grad0-10);stroke:none;stroke-width:34;stroke-linecap:butt" />
				</g>
				<g
   id="shape5128-11"
   transform="translate(0.0251969,-8.2935)">
					<title
   id="title46">Sheet.5128</title>
					<path
   d="m 19.45,111.09 -2.09,2.12 a 0.944885,0.95245 0 0 1 -1.33544,0 L 0.55,97.65 a 1.88977,1.9049 0 0 1 0,-2.69 l 2.09,-2.11 16.81,16.9 a 0.944885,0.95245 0 0 1 0,1.34613 z"
   class="st3"
   id="path48"
   inkscape:connector-curvature="0"
   style="fill:#50e6ff;stroke:none;stroke-width:34;stroke-linecap:butt" />
				</g>
				<g
   id="shape5129-13"
   transform="translate(0,-22.0492)">
					<title
   id="title51">Sheet.5129</title>
					<path
   d="m 17.07,93.34 2.1,2.1 a 0.944885,0.95245 0 0 1 0,1.34613 L 2.65,113.49 0.55,111.38 a 1.88977,1.9049 0 0 1 0,-2.69 l 15.2,-15.35 a 0.944885,0.95245 0 0 1 1.32284,-0.0032 z m 39.05,18.02 -2.1,2.11 -16.52,-16.7 a 0.944885,0.95245 0 0 1 0,-1.34613 L 39.62,93.29 a 0.944885,0.95245 0 0 1 1.33544,0 L 56.14,108.65 a 1.88977,1.9049 0 0 1 0,2.69 z"
   class="st4"
   id="path53"
   inkscape:connector-curvature="0"
   style="fill:#1490df;stroke:none;stroke-width:34;stroke-linecap:butt" />
				</g>
				<g
   id="shape5130-15"
   transform="translate(31.4378)">
					<title
   id="title56">Sheet.5130</title>
					<path
   d="M 19.69,113.49 A 14.0349,14.1473 0 1 1 2.49,91.13 l 0.15,-0.11 a 14.0322,14.144605 0 0 1 17.05,22.47 z"
   class="st5"
   id="path58"
   inkscape:connector-curvature="0"
   style="fill:url(#grad7-18);stroke:none;stroke-width:34;stroke-linecap:butt" />
				</g>
				<g
   id="shape5131-19"
   transform="translate(30.3953,-1.47312)">
					<title
   id="title61">Sheet.5131</title>
					<path
   d="m 6.09,98.99 a 20.7245,20.8904 0 0 1 6.74,-4.69 23.6851,23.8747 0 0 1 7.74,-1.83 14.063,14.1756 0 0 1 2.46,2.4 21.4426,21.6143 -180 0 0 -14.71,5.96 4.55434,4.59081 -180 0 0 -2.23,-1.84 z m -4.72,7.52 a 29.345,29.5799 -180 0 0 -1.37,4.36 12.3181,12.4168 -180 0 0 1.02,1.53 13.5024,13.6105 -180 0 0 0.91,1.09 29.4552,29.691 0 0 1 1.78,-5.78 4.54805,4.58446 0 0 1 -2.34,-1.19 z"
   class="st6"
   id="path63"
   inkscape:connector-curvature="0"
   style="fill:#ffffff;fill-opacity:0.6;stroke:none;stroke-width:34;stroke-linecap:butt" />
				</g>
				<g
   id="shape5132-21"
   transform="translate(30.3953,-7.16877)">
					<title
   id="title66">Sheet.5132</title>
					<ellipse
   cx="4.5071001"
   cy="108.944"
   rx="4.5071001"
   ry="4.54318"
   class="st7"
   id="ellipse68"
   style="fill:url(#linearGradient4620);stroke:none;stroke-width:34;stroke-linecap:butt" />
				</g>
				<g
   id="shape5133-25"
   transform="translate(30.4268,-0.942925)">
					<title
   id="title71">Sheet.5133</title>
					<path
   d="M 0.94,99.92 A 20.7875,20.9539 0 0 1 0,95.96 13.43,13.5375 0 0 1 1.82,93.55 19.7922,19.9506 -180 0 0 2.95,98.44 4.43781,4.47334 -180 0 0 0.94,99.92 Z m 10.11,11.11 a 2.94174,2.96529 0 0 1 0.89,-2.11 19.5654,19.7221 0 0 1 -4.18,-3.1 4.5008,4.53683 0 0 1 -2.46,1.38 21.7575,21.9317 -180 0 0 2.39,2.13 19.8898,20.0491 -180 0 0 3.39,2.08 3.06458,3.08911 0 0 1 -0.03,-0.39 z m 12.59,0.23 a 13.5087,13.6169 0 0 1 -1.96,2.23 22.4914,22.6715 0 0 1 -5.65,-0.4 2.8882,2.91132 -180 0 0 0.85,-2.06 0.592128,0.596868 -180 0 0 0,-0.18414 19.8426,20.0014 -180 0 0 4.55,0.53414 19.1843,19.3379 -180 0 0 2.23,-0.13 z"
   class="st8"
   id="path73"
   inkscape:connector-curvature="0"
   style="fill:#f2f2f2;fill-opacity:0.55;stroke:none;stroke-width:34;stroke-linecap:butt" />
				</g>
				<g
   id="shape5134-27"
   transform="translate(41.4567,-0.447651)">
					<title
   id="title76">Sheet.5134</title>
					<ellipse
   cx="2.93859"
   cy="110.525"
   rx="2.93859"
   ry="2.9621201"
   class="st9"
   id="ellipse78"
   style="fill:url(#linearGradient4622);stroke:none;stroke-width:34;stroke-linecap:butt" />
				</g>
				<g
   id="shape5135-31"
   transform="translate(47.9575,-7.58467)">
					<title
   id="title81">Sheet.5135</title>
					<ellipse
   cx="3.1212699"
   cy="110.341"
   rx="3.1212699"
   ry="3.14626"
   class="st9"
   id="ellipse83"
   style="fill:url(#linearGradient4624);stroke:none;stroke-width:34;stroke-linecap:butt" />
				</g>
				<g
   id="shape5136-34"
   transform="translate(36.5528,-6.79097)">
					<title
   id="title86">Sheet.5136</title>
					<path
   d="M 3.55,101.56 A 30.0505,30.2911 0 0 1 0,96.27 a 12.3622,12.4612 0 0 1 1.8,-0.7 27.9528,28.1766 -180 0 0 3.3,4.86 42.186,42.5237 -180 0 0 7.36,6.89 3.01418,3.03831 -180 0 0 -1,1.66 43.619,43.9682 0 0 1 -7.91,-7.42 z m 16.21,10.1 -0.58,-0.28 -0.49,-0.27 h -0.1 l -0.43,-0.35 h -0.12 l -0.51,-0.32 a 2.90395,2.92719 0 0 1 -1.05,1.53 c 0.19,0.14 0.41,0.25 0.63,0.37 l 0.13,0.08 0.57,0.32 1.42,0.75 a 14.2583,14.3725 -180 0 0 0.48,-1.85 z"
   class="st10"
   id="path88"
   inkscape:connector-curvature="0"
   style="fill:#f2f2f2;fill-opacity:0.7;stroke:none;stroke-width:34;stroke-linecap:butt" />
				</g>
				<g
   id="shape5137-36"
   transform="translate(30.3953,-7.16877)">
					<title
   id="title91">Sheet.5137</title>
					<ellipse
   cx="4.5071001"
   cy="108.944"
   rx="4.5071001"
   ry="4.54318"
   class="st7"
   id="ellipse93"
   style="fill:url(#linearGradient4626);stroke:none;stroke-width:34;stroke-linecap:butt" />
				</g>
				<g
   id="shape5138-39"
   transform="translate(41.4567,-0.447651)">
					<title
   id="title96">Sheet.5138</title>
					<ellipse
   cx="2.93859"
   cy="110.525"
   rx="2.93859"
   ry="2.9621201"
   class="st9"
   id="ellipse98"
   style="fill:url(#linearGradient4628);stroke:none;stroke-width:34;stroke-linecap:butt" />
				</g>
			</g>
		</g>
	</g>
</svg>

<?xml version="1.0" encoding="UTF-8" standalone="no"?>
<!DOCTYPE svg PUBLIC "-//W3C//DTD SVG 1.1//EN" "http://www.w3.org/Graphics/SVG/1.1/DTD/svg11.dtd">
<!-- Generated by Microsoft Visio, SVG Export Event Hub Networking.svg Page-1 -->
<svg xmlns="http://www.w3.org/2000/svg" xmlns:xlink="http://www.w3.org/1999/xlink" xmlns:ev="http://www.w3.org/2001/xml-events"
		width="1.73185in" height="1.57621in" viewBox="0 0 124.693 113.487" xml:space="preserve" color-interpolation-filters="sRGB"
		class="st11">
	<style type="text/css">
	<![CDATA[
		.st1 {fill:url(#grad0-6);stroke:none;stroke-linecap:butt;stroke-width:34}
		.st2 {fill:url(#grad0-10);stroke:none;stroke-linecap:butt;stroke-width:34}
		.st3 {fill:#50e6ff;stroke:none;stroke-linecap:butt;stroke-width:34}
		.st4 {fill:#1490df;stroke:none;stroke-linecap:butt;stroke-width:34}
		.st5 {fill:url(#grad7-18);stroke:none;stroke-linecap:butt;stroke-width:34}
		.st6 {fill:#ffffff;fill-opacity:0.6;stroke:none;stroke-linecap:butt;stroke-width:34}
		.st7 {fill:url(#grad0-24);stroke:none;stroke-linecap:butt;stroke-width:34}
		.st8 {fill:#f2f2f2;fill-opacity:0.55;stroke:none;stroke-linecap:butt;stroke-width:34}
		.st9 {fill:url(#grad0-30);stroke:none;stroke-linecap:butt;stroke-width:34}
		.st10 {fill:#f2f2f2;fill-opacity:0.7;stroke:none;stroke-linecap:butt;stroke-width:34}
		.st11 {fill:none;fill-rule:evenodd;font-size:12px;overflow:visible;stroke-linecap:square;stroke-miterlimit:3}
	]]>
	</style>

	<defs id="Patterns_And_Gradients">
		<linearGradient id="grad0-6" x1="0" y1="0" x2="1" y2="0" gradientTransform="rotate(45.175323135507 0.5 0.5)">
			<stop offset="0" stop-color="#86d633" stop-opacity="1"/>
			<stop offset="1" stop-color="#5e9624" stop-opacity="1"/>
		</linearGradient>
		<linearGradient id="grad0-10" x1="0" y1="0" x2="1" y2="0" gradientTransform="rotate(-45.175323135511 0.5 0.5)">
			<stop offset="0" stop-color="#86d633" stop-opacity="1"/>
			<stop offset="1" stop-color="#5e9624" stop-opacity="1"/>
		</linearGradient>
		<radialGradient id="grad7-18" cx="0" cy="0" r="1.4">
			<stop offset="0.18" stop-color="#5ea0ef" stop-opacity="1"/>
			<stop offset="1" stop-color="#0078d4" stop-opacity="1"/>
		</radialGradient>
		<linearGradient id="grad0-24" x1="0" y1="0" x2="1" y2="0" gradientTransform="rotate(-90.442857109292 0.5 0.5)">
			<stop offset="0" stop-color="#cccccc" stop-opacity="1"/>
			<stop offset="1" stop-color="#fcfcfc" stop-opacity="1"/>
		</linearGradient>
		<linearGradient id="grad0-30" x1="0" y1="0" x2="1" y2="0" gradientTransform="rotate(90 0.5 0.5)">
			<stop offset="0" stop-color="#cccccc" stop-opacity="1"/>
			<stop offset="1" stop-color="#fcfcfc" stop-opacity="1"/>
		</linearGradient>
	</defs>
	<g>
		<title>Page-1</title>
		<g id="group5018-1" transform="translate(34,-36.9671)">
			<title>Event Hub Networking</title>
			<g id="group5019-2">
				<title>Sheet.5019</title>
				<g id="shape5020-3" transform="translate(24.8205,-21.7222)">
					<title>Sheet.5020</title>
					<ellipse cx="3.65355" cy="109.804" rx="3.65355" ry="3.6828" class="st1"/>
				</g>
				<g id="shape5021-7" transform="translate(13.17,-21.7222)">
					<title>Sheet.5021</title>
					<ellipse cx="3.65355" cy="109.804" rx="3.65355" ry="3.6828" class="st2"/>
				</g>
				<g id="shape5022-11" transform="translate(0.0251969,-8.2935)">
					<title>Sheet.5022</title>
					<path d="M19.45 111.09 L17.36 113.21 a0.944885 0.95245 0 0 1 -1.33544 1.42109E-14 L0.55 97.65 A1.88977 1.9049
								 0 0 1 0.55 94.96 L2.64 92.85 L19.45 109.75 a0.944885 0.95245 0 0 1 -7.10543E-15 1.34613 L19.45 111.09
								 Z" class="st3"/>
				</g>
				<g id="shape5023-13" transform="translate(0,-22.0492)">
					<title>Sheet.5023</title>
					<path d="M17.07 93.34 L19.17 95.44 a0.944885 0.95245 0 0 1 2.84217E-14 1.34613 L2.65 113.49 L0.55 111.38 A1.88977
								 1.9049 0 0 1 0.55 108.69 L15.75 93.34 a0.944885 0.95245 0 0 1 1.32284 -0.00317483 ZM56.12 111.36
								 L54.02 113.47 L37.5 96.77 a0.944885 0.95245 0 0 1 -7.10543E-15 -1.34613 L39.62 93.29 a0.944885 0.95245
								 0 0 1 1.33544 -7.10543E-14 L56.14 108.65 A1.88977 1.9049 0 0 1 56.14 111.34 L56.12 111.36 Z"
							class="st4"/>
				</g>
				<g id="shape5024-15" transform="translate(31.4378,0)">
					<title>Sheet.5024</title>
					<path d="M19.69 113.49 A14.0349 14.1473 0 1 1 2.49 91.13 L2.64 91.02 A14.0315 14.1439 0 0 1 19.69 113.49 Z"
							class="st5"/>
				</g>
				<g id="shape5025-19" transform="translate(30.3953,-1.47312)">
					<title>Sheet.5025</title>
					<path d="M6.09 98.99 A20.7245 20.8904 0 0 1 12.83 94.3 A23.6851 23.8747 0 0 1 20.57 92.47 A14.063 14.1756 0 0
								 1 23.03 94.87 A21.4426 21.6143 -180 0 0 8.32 100.83 A4.55434 4.59081 -180 0 0 6.09 98.99 ZM1.37
								 106.51 A29.345 29.5799 -180 0 0 0 110.87 A12.3181 12.4168 -180 0 0 1.02 112.4 A13.5024 13.6105 -180
								 0 0 1.93 113.49 A29.4552 29.691 0 0 1 3.71 107.71 A4.54805 4.58446 0 0 1 1.37 106.52 L1.37 106.51
								 Z" class="st6"/>
				</g>
				<g id="shape5026-21" transform="translate(30.3953,-7.16877)">
					<title>Sheet.5026</title>
					<ellipse cx="4.5071" cy="108.944" rx="4.5071" ry="4.54318" class="st7"/>
				</g>
				<g id="shape5027-25" transform="translate(30.4268,-0.942925)">
					<title>Sheet.5027</title>
					<path d="M0.94 99.92 A20.7875 20.9539 0 0 1 0 95.96 A13.43 13.5375 0 0 1 1.82 93.55 A19.7922 19.9506 -180 0 0
								 2.95 98.44 A4.43781 4.47334 -180 0 0 0.94 99.92 ZM11.05 111.03 A2.94174 2.96529 0 0 1 11.94 108.92
								 A19.5654 19.7221 0 0 1 7.76 105.82 A4.5008 4.53683 0 0 1 5.3 107.2 A21.7575 21.9317 -180 0 0 7.69
								 109.33 A19.8898 20.0491 -180 0 0 11.08 111.41 A3.06458 3.08911 0 0 1 11.05 111.02 L11.05 111.03
								 ZM23.64 111.26 A13.5087 13.6169 0 0 1 21.68 113.49 A22.4914 22.6715 0 0 1 16.03 113.09 A2.8882 2.91132
								 -180 0 0 16.88 111.03 a0.592128 0.596868 -180 0 0 3.55271E-15 -0.18414 A19.8426 20.0014 -180 0 0
								 21.43 111.38 A19.1843 19.3379 -180 0 0 23.66 111.25 L23.64 111.26 Z" class="st8"/>
				</g>
				<g id="shape5028-27" transform="translate(41.4567,-0.447651)">
					<title>Sheet.5028</title>
					<ellipse cx="2.93859" cy="110.525" rx="2.93859" ry="2.96212" class="st9"/>
				</g>
				<g id="shape5029-31" transform="translate(47.9575,-7.58467)">
					<title>Sheet.5029</title>
					<ellipse cx="3.12127" cy="110.341" rx="3.12127" ry="3.14626" class="st9"/>
				</g>
				<g id="shape5030-34" transform="translate(36.5528,-6.79097)">
					<title>Sheet.5030</title>
					<path d="M3.55 101.56 A30.0505 30.2911 0 0 1 -0 96.27 A12.3622 12.4612 0 0 1 1.8 95.57 A27.9528 28.1766 -180
								 0 0 5.1 100.43 A42.186 42.5237 -180 0 0 12.46 107.32 A3.01418 3.03831 -180 0 0 11.46 108.98 A43.619
								 43.9682 0 0 1 3.55 101.56 ZM19.76 111.66 L19.18 111.38 L18.69 111.11 L18.59 111.11 L18.16 110.76
								 L18.04 110.76 L17.53 110.44 A2.90395 2.92719 0 0 1 16.48 111.97 C16.67 112.11 16.89 112.22 17.11
								 112.34 L17.24 112.42 L17.81 112.74 L19.23 113.49 A14.2583 14.3725 -180 0 0 19.71 111.64 L19.76 111.66
								 Z" class="st10"/>
				</g>
				<g id="shape5031-36" transform="translate(30.3953,-7.16877)">
					<title>Sheet.5031</title>
					<ellipse cx="4.5071" cy="108.944" rx="4.5071" ry="4.54318" class="st7"/>
				</g>
				<g id="shape5032-39" transform="translate(41.4567,-0.447651)">
					<title>Sheet.5032</title>
					<ellipse cx="2.93859" cy="110.525" rx="2.93859" ry="2.96212" class="st9"/>
				</g>
			</g>
		</g>
	</g>
</svg>
